X: 12364
T: False Proof, The
R: jig
M: 6/8
K: Amajor
|:"F#m"FAc cBc|"F#m"cBA G2c|"Bm"BAG FFF|"E"EFA GEC|
"D"DFA cce|"D"cBA G2c|"Bm"BAG FFE|1 "C#m"FGE "F#m"FFC:|2 "C#m"FGE "F#m"Fz2|
zAG|:"F#m"FGE DCB,|"F#m"CCB, B,A,B,|"Bm"DDB, B,CD|"E"AGE "F#m"FAG|
"F#m"FGE DCB,|"F#m"CCB, B,CD|"Bm"BBA "E"GFE|1 "F#m"FFC zAG:|2 "F#m"Fz2 FAF||
|:"F#m"cFd Fed|"F#m"cBA BBA|"Bm"G2c BAB|"Bm"BAF "F#m"FEF|
"F#m"cFd Fec|"F#m"fz2 fed|1 "Bm"ded "C#m"cBA|"E"BGE "F#m"FAF:|2 "Bm"ced "C#m"cBA|"C#m"BBA||

